X:1
T: Johnny won't you Marry me
C:
R:Strathspey
Q: 128
K:D
M:4/4
L:1/16
|:A4 ABc2 d3e f4|d3B B3A dB3 B4|A4 ABc2 d3e f4|g3b agf2 e4 d4|
A4 ABc2 d3e f4|d3B B3A dB3 B4|A4 ABc2 d3e f4|g3b agf2 e4 d4|
fga2 a3g f3g a4|gb3 b3a g3a b4|a4 a3f d3e f3a|((3g2a2g2) ((3f2g2f2) ((3e2f2e2) ((3d2c2B2) |
fga2 a3g f3g a4|gb3 b3a g3a b4|fga2 a3g f3g a4|g3b agf2 e4 d4:|
